svg/device/light_line.svg

<?xml version="1.0" encoding="UTF-8"?>
<svg width="24px" height="24px" viewBox="0 0 24 24" version="1.1" xmlns="http://www.w3.org/2000/svg" xmlns:xlink="http://www.w3.org/1999/xlink">
    <title>light_line</title>
    <g id="页面-1" stroke="none" stroke-width="1" fill="none" fill-rule="evenodd">
        <g id="Device" transform="translate(-768.000000, -192.000000)">
            <g id="light_line" transform="translate(768.000000, 192.000000)">
                 <path d="M24,0 L24,24 L0,24 L0,0 L24,0 Z M12.5934901,23.257841 L12.5819402,23.2595131 L12.5108777,23.2950439 L12.4918791,23.2987469 L12.4918791,23.2987469 L12.4767152,23.2950439 L12.4056548,23.2595131 C12.3958229,23.2563662 12.3870493,23.2590235 12.3821421,23.2649074 L12.3780323,23.275831 L12.360941,23.7031097 L12.3658947,23.7234994 L12.3769048,23.7357139 L12.4804777,23.8096931 L12.4953491,23.8136134 L12.4953491,23.8136134 L12.5071152,23.8096931 L12.6106902,23.7357139 L12.6232938,23.7196733 L12.6232938,23.7196733 L12.6266527,23.7031097 L12.609561,23.275831 C12.6075724,23.2657013 12.6010112,23.2592993 12.5934901,23.257841 L12.5934901,23.257841 Z M12.8583906,23.1452862 L12.8445485,23.1473072 L12.6598443,23.2396597 L12.6498822,23.2499052 L12.6498822,23.2499052 L12.6471943,23.2611114 L12.6650943,23.6906389 L12.6699349,23.7034178 L12.6699349,23.7034178 L12.678386,23.7104931 L12.8793402,23.8032389 C12.8914285,23.8068999 12.9022333,23.8029875 12.9078286,23.7952264 L12.9118235,23.7811639 L12.8776777,23.1665331 C12.8752882,23.1545897 12.8674102,23.1470016 12.8583906,23.1452862 L12.8583906,23.1452862 Z M12.1430473,23.1473072 C12.1332178,23.1423925 12.1221763,23.1452606 12.1156365,23.1525954 L12.1099173,23.1665331 L12.0757714,23.7811639 C12.0751323,23.7926639 12.0828099,23.8018602 12.0926481,23.8045676 L12.108256,23.8032389 L12.3092106,23.7104931 L12.3186497,23.7024347 L12.3186497,23.7024347 L12.3225043,23.6906389 L12.340401,23.2611114 L12.337245,23.2485176 L12.337245,23.2485176 L12.3277531,23.2396597 L12.1430473,23.1473072 Z" id="MingCute" fill-rule="nonzero"></path>
                <path d="M12,19.0001 C12.51285,19.0001 12.9355092,19.386127 12.9932725,19.8834761 L13,20.0001 L13,21.0001 C13,21.5524 12.5523,22.0001 12,22.0001 C11.48715,22.0001 11.0644908,21.614073 11.0067275,21.1167239 L11,21.0001 L11,20.0001 C11,19.4478 11.4477,19.0001 12,19.0001 Z M7.05028,16.9498 C7.4408,17.3403 7.4408,17.9735 7.05028,18.364 L6.34317,19.0711 C5.95265,19.4617 5.31948,19.4617 4.92896,19.0711 C4.53843,18.6806 4.53843,18.0474 4.92896,17.6569 L5.6360625,16.9498 C6.02659,16.5593 6.65975,16.5593 7.05028,16.9498 Z M18.3639,16.9498 L19.071,17.657 C19.4615,18.0475 19.4615,18.6806 19.071,19.0712 C18.6805,19.4617 18.0473,19.4617 17.6568,19.0712 L16.9497,18.3641 C16.5592,17.9735 16.5592,17.3404 16.9497,16.9498 C17.3402,16.5593 17.9734,16.5593 18.3639,16.9498 Z M12.6172,2 C13.6259,2 14.4767,2.75107 14.6018,3.75193 L14.9818,6.79221 C16.7852,7.82703 18,9.77165 18,12 C18,15.3137 15.3137,18 12,18 C8.68629,18 6,15.3137 6,12 C6,9.77165 7.21476,7.82703 9.01819,6.79221 L9.39823,3.75193 C9.52333,2.75107 10.3741,2 11.3828,2 L12.6172,2 Z M12,8 C9.79086,8 8,9.79086 8,12 C8,14.2091 9.79086,16 12,16 C14.2091,16 16,14.2091 16,12 C16,9.79086 14.2091,8 12,8 Z M4,11.0001 C4.55228,11.0001 5,11.4478 5,12.0001 C5,12.5524 4.55228,13.0001 4,13.0001 L3,13.0001 C2.44772,13.0001 2,12.5524 2,12.0001 C2,11.4478 2.44772,11.0001 3,11.0001 L4,11.0001 Z M21,11.0001 C21.5523,11.0001 22,11.4478 22,12.0001 C22,12.5524 21.5523,13.0001 21,13.0001 L20,13.0001 C19.4477,13.0001 19,12.5524 19,12.0001 C19,11.4478 19.4477,11.0001 20,11.0001 L21,11.0001 Z M19.0711,4.929 C19.4616,5.31953 19.4616,5.95269 19.0711,6.34322 L18.364,7.05032 C17.9735,7.44085 17.3403,7.44085 16.9498,7.05032 C16.5592,6.6598 16.5592,6.02663 16.9498,5.63611 L17.6569,4.929 C18.0474,4.53848 18.6806,4.53848 19.0711,4.929 Z M6.34309,4.92903 L7.0502,5.63614 C7.44072,6.02666 7.44072,6.65983 7.0502,7.05035 C6.65968,7.44088 6.02651,7.44088 5.63598625,7.05035 L4.92888,6.34325 C4.53835,5.95272 4.53836,5.31956 4.92888,4.92903 C5.3194,4.53851 5.95257,4.53851 6.34309,4.92903 Z M12.6172,4 L11.3828,4 L11.1328,6 L12.8672,6 L12.6172,4 Z" id="形状" fill="#09244B"></path>
            </g>
        </g>
    </g>
</svg>

<svg xmlns="http://www.w3.org/2000/svg" width="24" height="24"><g fill="none" fill-rule="evenodd"><path d="M24 0v24H0V0h24ZM12.593 23.258l-.011.002-.071.035-.02.004-.014-.004-.071-.035c-.01-.004-.019-.001-.024.005l-.004.01-.017.428.005.02.01.013.104.074.015.004.012-.004.104-.074.012-.016.004-.017-.017-.427c-.002-.01-.009-.017-.017-.018Zm.265-.113-.013.002-.185.093-.01.01-.003.011.018.43.005.012.008.007.201.093c.012.004.023 0 .029-.008l.004-.014-.034-.614c-.003-.012-.01-.02-.02-.022Zm-.715.002a.023.023 0 0 0-.027.006l-.006.014-.034.614c0 .012.007.02.017.024l.015-.002.201-.093.01-.008.004-.011.017-.43-.003-.012-.01-.01-.184-.092Z"/><path fill="#09244B" d="M12 19a1 1 0 0 1 .993.883L13 20v1a1 1 0 0 1-1.993.117L11 21v-1a1 1 0 0 1 1-1Zm-4.95-2.05a1 1 0 0 1 0 1.414l-.707.707a1 1 0 1 1-1.414-1.414l.707-.707a1 1 0 0 1 1.414 0Zm11.314 0 .707.707a1 1 0 0 1-1.414 1.414l-.707-.707a1 1 0 0 1 1.414-1.414ZM12.617 2a2 2 0 0 1 1.985 1.752l.38 3.04a6 6 0 1 1-5.964 0l.38-3.04A2 2 0 0 1 11.383 2h1.234ZM12 8a4 4 0 1 0 0 8 4 4 0 0 0 0-8Zm-8 3a1 1 0 1 1 0 2H3a1 1 0 1 1 0-2h1Zm17 0a1 1 0 1 1 0 2h-1a1 1 0 1 1 0-2h1ZM19.071 4.93a1 1 0 0 1 0 1.414l-.707.707a1 1 0 1 1-1.414-1.414l.707-.707a1 1 0 0 1 1.414 0Zm-12.728 0 .707.707A1 1 0 0 1 5.636 7.05l-.707-.707A1 1 0 0 1 6.343 4.93ZM12.617 4h-1.234l-.25 2h1.734l-.25-2Z"/></g></svg>
